X:178
T:Waltz,A. HSJJ.180
M:3/8
L:1/16
Q:3/8=50
S:HSJ Jackson,Wyresdale,Lancs.1823
R:.Waltz
O:England
A:Lancashire
H:1823
Z:vmp.Chris Partington.
K:C
“_key sig. D in MS”G2|cBcdef|g2g2g2|a2a2a2|g4g2|\
agf2f2|gfe2e2|d2dcde|c4:|!
|:c2|d2~g2g2|e2c2c2|d2g2g2|e4c2|d2g2g2|e2c2c2|defdcB|c4:|!
|:g2|agf2f2|gfe2e2|e2f2g2|f4g2|agf2f2|gfe2e2|d2dcde|” DC”c4|]

